X:1
T:Title
%%score ( 1 2 ) { 3 | 4 }
L:1/8
Q:1/4=115
M:2/2
K:Eb
V:1 treble nm="Grand Piano, Soprano"
V:2 treble 
V:3 bass nm="Choir Pad, Fraternity, 10.10.10.10.12.12"
V:4 bass 
V:1
 [EB]4 [EG]2 [B,E]2 | [B,E]4 [B,D]4 | [B,E]2 [DF]2 [EG]2 [E=A]2 | [DB]6 [FB]2 | [Ee]4 [Fd]4 | %5
w: By~William~Pierson~Merrill,~1908 * *|||||
 [Gc]4 [EG]4 | [DF]2 [DB]2 [EB]2 [E=A]2 | [DB]6 [DB]2 | [Ec]4 [Ec]4 | [=Ec]4 [EG]4 | %10
w: |||||
 [FA]2 [Fc]2 [FB]2 [FA]2 | [EG]6 [EG]2 | [_G=A]4 [DA]4 | [DB]2 [Dd]2 [Ec]2 [EG]2 | z4 =A4 | %15
w: |||||
 [B,G]8 | G4 z4 | A3 A A2 A2 | =A2 A2 A2 A2 | [B,DFB]6 [FB]2 | [Fc]4 [Ad]4 | %21
w: ||||||
 [Ge]2 [FB]2 [EA]2 [EG]2 | [EG]2 [B,E]2 [DF]3 E | E8 |] %24
w: |||
V:2
 x8 | x8 | x8 | x8 | x8 | x8 | x8 | x8 | x8 | x8 | x8 | x8 | x8 | x8 | [DB]4 D2 C2 | x8 | %16
 [B,D]4- [B,-D-G]2 [B,DG]2 | [CE]8 | [CF]8 | x8 | x8 | x8 | x8 | x8 |] %24
V:3
 G,4 B,2 G,2 | A,4 A,4 | G,2 B,2 B,2 F,2 | F,6 F,2 | G,4 G,4 | G,4 C4 | D2 B,2 C2 F,2 | F,6 F,2 | %8
 A,4[K:treble] C4 | C4 C4 | C2 A,2[K:bass] A,2 B,2 | B,6 B,2 | C4 C4 | B,2 B,2 C2 C2 | G,4 _G,4 | %15
 G,8 | G,4 G,2 G,2 | A,3 A, A,2 A,2 | =A,2 A,2 A,2 A,2 | B,6[K:treble] D2 | D4 B,4 | %21
 B,2 D2 C2[K:bass] B,2 | B,2 G,2 A,3 G, | G,8 |] %24
V:4
 E,4 E,2 E,2 | F,4 F,4 | E,2 D,2 E,2 C,2 | B,,6 D,2 | C,4 D,4 | E,4 E,4 | F,2 F,2 .F,4 | %7
 B,,6 B,,2 | A,,4 A,4 | G,4 G,4 | F,2 E,2 D,2 B,,2 | E,6 E,2 | D,4 _G,4 | G,2 G,2 C,2 C,2 | %14
 D,4 D,4 | G,,8 | G,,8 | [F,,F,]8 | [E,,E,]8 | [D,,D,]6 B,2 | A,4 F,4 | E,2 E,2 E,2 E,2 | %22
 B,,2 B,,2 B,,3 E, | E,8 |] %24

